assets/illustrations/multisize/32/pptx.svg

<svg id="eadef842-505d-4d75-9c43-a1a8cb3b4b1a" data-name="ICONS" xmlns="http://www.w3.org/2000/svg" xmlns:xlink="http://www.w3.org/1999/xlink" viewBox="0 0 32 32"><defs><linearGradient id="cd645f6b-30c9-4c27-8bf2-f8904b8e86a0" x1="5.0842" y1="3.60755" x2="27.96138" y2="30.87151" gradientUnits="userSpaceOnUse"><stop offset="0" stop-color="#fff" stop-opacity="0"/><stop offset="0.86247" stop-color="#5e5e5e" stop-opacity="0.06315"/><stop offset="1" stop-opacity="0.1"/></linearGradient><linearGradient id="992fcd79-cf7c-487b-9124-e97703a5b294" x1="22.14788" y1="9.10212" x2="26.11437" y2="5.13563" gradientUnits="userSpaceOnUse"><stop offset="0" stop-color="#fff" stop-opacity="0"/><stop offset="0.44604" stop-color="#fff" stop-opacity="0.00799"/><stop offset="0.63551" stop-color="#fff" stop-opacity="0.03616"/><stop offset="0.77636" stop-color="#fff" stop-opacity="0.08493"/><stop offset="0.8924" stop-color="#fff" stop-opacity="0.15385"/><stop offset="0.99328" stop-color="#fff" stop-opacity="0.24291"/><stop offset="1" stop-color="#fff" stop-opacity="0.25"/></linearGradient><linearGradient id="c6a1496d-6eb7-4156-a84c-25e96e34abb5" x1="9.5" y1="26.4375" x2="9.5" y2="9.52504" gradientUnits="userSpaceOnUse"><stop offset="0" stop-color="#fff" stop-opacity="0"/><stop offset="0.52587" stop-color="#fff" stop-opacity="0.00735"/><stop offset="0.71529" stop-color="#fff" stop-opacity="0.03396"/><stop offset="0.8503" stop-color="#fff" stop-opacity="0.0803"/><stop offset="0.95875" stop-color="#fff" stop-opacity="0.14595"/><stop offset="1" stop-color="#fff" stop-opacity="0.18"/></linearGradient><linearGradient id="138fcd2c-8067-4056-b8d0-a2267fe58612" x1="11.28178" y1="29.35196" x2="11.61734" y2="26.21204" gradientUnits="userSpaceOnUse"><stop offset="0" stop-color="#828282" stop-opacity="0"/><stop offset="0.86247" stop-color="#303030" stop-opacity="0.12631"/><stop offset="1" stop-opacity="0.2"/></linearGradient><linearGradient id="dc661e22-a2fc-4202-a065-becf22eec0c4" x1="25" y1="10.9375" x2="25" y2="9.05834" gradientUnits="userSpaceOnUse"><stop offset="0" stop-color="#828282" stop-opacity="0"/><stop offset="0.86247" stop-color="#303030" stop-opacity="0.06315"/><stop offset="1" stop-opacity="0.1"/></linearGradient></defs><title>FileTypeIcons_Master_All_NEW</title><polygon points="28 29 8 29 8 3 23 3 28 8 28 29" fill="#fff"/><path d="M19,7a5,5,0,0,1,5,5H19Z" fill="#f5ba9d"/><path d="M23,2H7V30H29V8Zm0,1.5L27.5,8H23ZM28,29H8V3H22V9h6Z" fill="#949494"/><path d="M24,13a6,6,0,1,1-6-6v6Z" fill="#c8c8c8"/><rect x="16" y="23" width="10" height="1" fill="#c8c8c8"/><rect x="16" y="21" width="10" height="1" fill="#c8c8c8"/><rect x="16" y="25" width="10" height="1" fill="#c8c8c8"/><polygon points="3 11 16 9 16 27 3 25 3 11" fill="#b7472a"/><path d="M8.84924,19.24407V22H7V14H9.897Q13,14,13,16.54951a2.41967,2.41967,0,0,1-.89027,1.94979,3.58778,3.58778,0,0,1-2.37881.74477Zm0-3.86053v2.49373h.7271q1.4771,0,1.4771-1.26081,0-1.23292-1.4771-1.23292Z" fill="#fff"/><path d="M29,8,23,2H7V30H29Z" fill="url(#cd645f6b-30c9-4c27-8bf2-f8904b8e86a0)"/><polygon points="7 2 7 3 22 3 22 9 28 9 28 24.5 29 24.5 29 8 23 2 7 2" fill="url(#992fcd79-cf7c-487b-9124-e97703a5b294)"/><polygon points="16 9 3 11 3 25 16 27 16 9" fill="url(#c6a1496d-6eb7-4156-a84c-25e96e34abb5)"/><polygon points="16 29 7 29 7 25.62 16 27 16 29" fill="url(#138fcd2c-8067-4056-b8d0-a2267fe58612)"/><rect x="22" y="9" width="6" height="2" fill="url(#dc661e22-a2fc-4202-a065-becf22eec0c4)"/></svg>

<?xml version="1.0" encoding="utf-8"?>
<!-- Generator: Adobe Illustrator 21.1.0, SVG Export Plug-In . SVG Version: 6.00 Build 0)  -->
<svg version="1.1" xmlns="http://www.w3.org/2000/svg" xmlns:xlink="http://www.w3.org/1999/xlink" x="0px" y="0px"
	 viewBox="0 0 32 32" enable-background="new 0 0 32 32" xml:space="preserve">
<g id="TEMPLATE" display="none">
	<g display="inline">
		<path fill="#D0D0D0" d="M32,0v32H0V0H32 M33-1h-1H0h-1v1v32v1h1h32h1v-1V0V-1L33-1z"/>
	</g>
	<g display="inline" opacity="0.1">
		<path fill="#FF3A6D" d="M30,2v28H2V2H30 M32,0H0v32h32V0L32,0z"/>
	</g>
</g>
<g id="ICONS">
	<polygon fill="#FFFFFF" points="28,29 8,29 8,3 23,3 28,8 	"/>
	<path fill="#F5BA9D" d="M19,7c2.7614,0,5,2.2386,5,5h-5V7z"/>
	<path fill="#949494" d="M23,2H7v28h22V8L23,2z M23,3.5L27.5,8H23V3.5z M28,29H8V3h14v6h6V29z"/>
	<path fill="#C8C8C8" d="M24,13c0,3.3137-2.6863,6-6,6s-6-2.6863-6-6s2.6863-6,6-6v6H24z"/>
	<rect x="16" y="23" fill="#C8C8C8" width="10" height="1"/>
	<rect x="16" y="21" fill="#C8C8C8" width="10" height="1"/>
	<rect x="16" y="25" fill="#C8C8C8" width="10" height="1"/>
	<polygon fill="#B7472A" points="3,11 16,9 16,27 3,25 	"/>
	<g>
		<path fill="#FFFFFF" d="M8.8492,19.2441V22H7v-8h2.8969C11.9656,14,13,14.8498,13,16.5495c0,0.8033-0.2968,1.4533-0.8903,1.9498
			s-1.3864,0.7448-2.3788,0.7448H8.8492z M8.8492,15.3835v2.4937h0.7271c0.9847,0,1.4771-0.4203,1.4771-1.2608
			c0-0.8219-0.4924-1.2329-1.4771-1.2329H8.8492z"/>
	</g>
	<linearGradient id="SVGID_1_" gradientUnits="userSpaceOnUse" x1="5.0842" y1="3.6075" x2="27.9614" y2="30.8715">
		<stop  offset="0" style="stop-color:#FFFFFF;stop-opacity:0"/>
		<stop  offset="0.2264" style="stop-color:#FCFCFC;stop-opacity:0.0226"/>
		<stop  offset="0.3626" style="stop-color:#F4F4F4;stop-opacity:0.0363"/>
		<stop  offset="0.475" style="stop-color:#E6E6E6;stop-opacity:0.0475"/>
		<stop  offset="0.5744" style="stop-color:#D1D1D1;stop-opacity:0.0574"/>
		<stop  offset="0.6652" style="stop-color:#B7B7B7;stop-opacity:0.0665"/>
		<stop  offset="0.7498" style="stop-color:#979797;stop-opacity:0.075"/>
		<stop  offset="0.8297" style="stop-color:#707070;stop-opacity:0.083"/>
		<stop  offset="0.9057" style="stop-color:#444444;stop-opacity:0.0906"/>
		<stop  offset="0.9761" style="stop-color:#121212;stop-opacity:0.0976"/>
		<stop  offset="1" style="stop-color:#000000;stop-opacity:0.1"/>
	</linearGradient>
	<path fill="url(#SVGID_1_)" d="M29,8l-6-6H7v28h22V8z"/>
	<linearGradient id="SVGID_2_" gradientUnits="userSpaceOnUse" x1="22.1479" y1="9.1021" x2="26.1144" y2="5.1356">
		<stop  offset="0" style="stop-color:#FFFFFF;stop-opacity:0"/>
		<stop  offset="0.8537" style="stop-color:#FFFFFF;stop-opacity:0.2134"/>
		<stop  offset="1" style="stop-color:#FFFFFF;stop-opacity:0.25"/>
	</linearGradient>
	<polygon fill="url(#SVGID_2_)" points="7,2 7,3 22,3 22,9 28,9 28,24.5 29,24.5 29,8 23,2 	"/>
	<linearGradient id="SVGID_3_" gradientUnits="userSpaceOnUse" x1="9.5" y1="26.4375" x2="9.5" y2="9.525">
		<stop  offset="0" style="stop-color:#FFFFFF;stop-opacity:0"/>
		<stop  offset="0.8587" style="stop-color:#FFFFFF;stop-opacity:0.1546"/>
		<stop  offset="1" style="stop-color:#FFFFFF;stop-opacity:0.18"/>
	</linearGradient>
	<polygon fill="url(#SVGID_3_)" points="16,9 3,11 3,25 16,27 	"/>
	<linearGradient id="SVGID_4_" gradientUnits="userSpaceOnUse" x1="11.2818" y1="29.352" x2="11.6173" y2="26.212">
		<stop  offset="0" style="stop-color:#828282;stop-opacity:0"/>
		<stop  offset="0.2812" style="stop-color:#7F7F7F;stop-opacity:0.0562"/>
		<stop  offset="0.4503" style="stop-color:#777777;stop-opacity:0.0901"/>
		<stop  offset="0.5899" style="stop-color:#696969;stop-opacity:0.118"/>
		<stop  offset="0.7133" style="stop-color:#545454;stop-opacity:0.1427"/>
		<stop  offset="0.8259" style="stop-color:#3A3A3A;stop-opacity:0.1652"/>
		<stop  offset="0.9294" style="stop-color:#1A1A1A;stop-opacity:0.1859"/>
		<stop  offset="1" style="stop-color:#000000;stop-opacity:0.2"/>
	</linearGradient>
	<polygon fill="url(#SVGID_4_)" points="16,29 7,29 7,25.62 16,27 	"/>
	<linearGradient id="SVGID_5_" gradientUnits="userSpaceOnUse" x1="25" y1="10.9375" x2="25" y2="9.0583">
		<stop  offset="0" style="stop-color:#828282;stop-opacity:0"/>
		<stop  offset="0.2812" style="stop-color:#7F7F7F;stop-opacity:0.0281"/>
		<stop  offset="0.4503" style="stop-color:#777777;stop-opacity:0.045"/>
		<stop  offset="0.5899" style="stop-color:#696969;stop-opacity:0.059"/>
		<stop  offset="0.7133" style="stop-color:#545454;stop-opacity:0.0713"/>
		<stop  offset="0.8259" style="stop-color:#3A3A3A;stop-opacity:0.0826"/>
		<stop  offset="0.9294" style="stop-color:#1A1A1A;stop-opacity:0.0929"/>
		<stop  offset="1" style="stop-color:#000000;stop-opacity:0.1"/>
	</linearGradient>
	<rect x="22" y="9" fill="url(#SVGID_5_)" width="6" height="2"/>
</g>
</svg>
